X:90
T:Noc sirph
Z:id:hn


*****************************


13800 0 1.209814 

<start>
2:6/4
z2B ~ e2d |12 e2d2 A2G|A2F2 A2FD|1
|:gfd2 eddg|B2dec e2d2|
e2cd e2dc |] BAGB B2Ac|dBB {g3|d


*****************************


13900 0 1.2636963 

<star
M:2/8
L:1/8
K:EGirian BDreoF , a, L6/B, #23)c C2Drd: Aere Plarch, Th.
Z:Rid:hname-1
M:6/8
L:1/8
::B


*****************************


14000 0 1.8318368 

<start>
T:Chorch
R:maz
Z:id:h-man-corch-20
M:3/4
K:G
BG|B/2f e fe|BA ecB fe|a=d ef|b2 ce/a/f/a/ fa|d2 Gf|


*****************************


14100 0 1.5847907 

<starka-8
M:1/8
K:G
P:Javiog Aestide al the
D:Duomairk Bn preetvime The
Z:cutheru Frassiougl Mafk o's ais


*****************************


14200 0 1.6171016 

<starpe-13
M:6/4
K:G
eg | af af | aa g2 ge|d2 cB cc|
d2 d2:|2 cA G2|
e2 gg|ag fd|e/d/e/g/ eg|ed fe|dB Ac|


*****************************


14300 0 1.7598418 

<star
s:verka
H:Pove A, Ine8 nene)
T:Vernan Hil Ths
R:polka
D:Rolka
Z:id:hn-polgn-5
M:3/4
L:vingal-
ga Be


*****************************


14400 0 0.5710701 

<start>
